!!!COM:	Compere, Loyset
!!!CDT:	~1445///-1518/08/16
!!!OTL:	Pour estre ou nombre des loyaulx
!!!AGN:	Song; Chanson
!!!SCT:	Com3031
!!!SCA:	Com3031
!!!voices:	3
**kern	**kern	**kern
*staff3	*staff2	*staff1
*Ivox	*Ivox	*Ivox
*I"Bassus	*I"Tenor	*I"Superius
*I'B	*I'T	*I'S
*clefF4	*clefGv2	*clefG2
*k[b-]	*k[b-]	*k[b-]
*M3/1	*M3/1	*M3/1
*met(O|)	*met(O|)	*met(O|)
=1-	=1-	=1-
1G	1G	0.r
1B-	1G	.
1A	1F	.
=2	=2	=2
1.G	0B-	1d
.	.	1d
2D	.	.
2.E-	1c	1c
4D	.	.
=3	=3	=3
0.BB-	0d	0f
.	1d	1f
=4	=4	=4
1r	1c	2.g
.	.	4a
1r	2B-	2b-
.	2.c	2.a
2r	.	.
.	4B-	4g
2GG	4A	4f
.	4G	4e
=5	=5	=5
2.BB-	2F	2.d
.	2G	.
4C	.	4e
2D	2B-	2d
2C	2c	1g
1D	1A	.
.	.	2f#i
=6	=6	=6
2.E-	0G	1g
4D	.	.
2C	.	1r
4BB-	.	.
4AA	.	.
1GG	1G	1b-
=7	=7	=7
1D	0F	2.a
.	.	4b-
2r	.	2cc
2.D	.	1dd
.	1F	.
4E	.	.
4F	.	2cc
8EL	.	.
8FJ	.	.
=8	=8	=8
2.G	0B-	2b-
.	.	4a
4F	.	4g
2D	.	2f
2G	.	1b-
1F	1c	.
.	.	2a
=9	=9	=9
2r	2B-	2g
2F	2A	2.cc
2G	2B-	.
.	.	4b-
2D	2d	1b-
2E	1c	.
2F	.	2a
=10	=10	=10
1BB-	0B-	1b-
4BB-	.	1r
4C	.	.
4D	.	.
4E-i	.	.
2D	1r	1f
2BB-	.	.
=11	=11	=11
2r	1B-	1g
1E-	.	.
.	1c	2g
2.F	.	1a
.	2c	.
4E-i	.	.
4D	[2d	2a
4C	.	.
=12	=12	=12
2.BB-	2d]	2b-
.	2d	2b-
4C	.	.
2.D	2d	1.a
.	2d	.
4E	.	.
2.F	[1c	.
.	.	4g
4G	.	4f
=13	=13	=13
2A	2c]	2e
2B-	2.B-	2.g
2F	.	.
.	4A	4f
4E	4G	1f
4D	4F	.
1C	1G	.
.	.	2e
=14	=14	=14
!	!	!LO:TX:Z=8:t=[s.c.]
2r	0F	1f
2.F	.	.
.	.	1r
4E	.	.
2.D	.	.
.	1r	1f
8CL	.	.
8BB-J	.	.
2AA	.	.
=15	=15	=15
1GG	1r	1g
1D	1F	1a
2r	2.G	2g
[2G	.	4f
.	4A	4e
=16	=16	=16
2G]	2B-	2d
2.F	2.c	2.a
4G	4B-	4g
2E	4A	1g
.	4G	.
1D	1A	.
.	.	2f#i
=17	=17	=17
2.GG	0G	1g
4AA	.	.
2BB-	.	2r
2.C	.	2g
.	1r	1g
4D	.	.
[2E-	.	.
=18	=18	=18
4E-]	1B-	1g
4D	.	.
4E-i	.	.
4D	.	.
1BB-	1B-	2f
.	.	4e
.	.	4d
1F	1A	2c
.	.	[2f
=19	=19	=19
2BB-	1G	2f]
2C	.	2.e
4D	2F	.
4E	.	4d
4F	4E	1d
8EL	4D	.
8FJ	.	.
1G	1E	.
.	.	2c#i
=20	=20	=20
2r	0D	1d
2.GG	.	.
.	.	1r
4AA	.	.
4BB-	.	.
4C	.	.
4D	1r	1a
4E	.	.
2F	.	.
=21	=21	=21
4E-	1r	1b-
2D	.	.
8CL	.	.
8BB-J	.	.
1AA	1A	1cc
2GG	2.B-	2b-
[2BB-	.	4a
.	4c	4g
=22	=22	=22
4BB-]	2d	2f
4C	.	.
2D	2B-	1b-
2E	1c	.
2F	.	2a
2G	2B-	2b-
4F	[2c	[2a
8EL	.	.
8DJ	.	.
=23	=23	=23
2C	4c]	4a]
.	4B-	4g
2.D	4A	4f
.	4G	4e
.	2.F	1d
4C	.	.
4BB-	.	.
8AAL	4G	.
8GGJ	.	.
2FF	2A	2r
[2BB-	[2B-	2d
=24	=24	=24
4BB-]	4B-]	2.f
4AA	4c	.
2BB-	4d	.
.	4e	4g
2FF	4d	2a
.	4c	.
2.BB-	2.d	2.b-
4C	4c	4a
2D	4B-	4g
.	4A	4f
=25	=25	=25
2BB-	2B-	2g
2.F	2.c	2.a
4E	4G	4g
2G	2B-	1g
1D	1A	.
.	.	2f#i
=26	=26	=26
0.GGl	0.Gl	0.gl
==	==	==
*-	*-	*-
!!!RDF**kern: l=long note in original notation
!!!RDF**kern: i=editorial accidental
!!!ENC:	Megan K. Eagen 2013/12/01
!!!END:	2013/12/01/
!!!EED:	Jesse Rodin
!!!EEV:	2014/02/23/
!!!ONB:	Translated from MusicXML and edited on 2014/02/23/ by Craig Sapp
!!muse2ps: C^@{COM}^i2I150v95,95,150Q16
